images/50411348.svg

<?xml version="1.0" encoding="UTF-8"?>
<svg xmlns="http://www.w3.org/2000/svg" xmlns:xlink="http://www.w3.org/1999/xlink" width="300pt" height="300pt" viewBox="0 0 300 300" version="1.1">
<defs>
<g>
<symbol overflow="visible" id="glyph0-0">
<path style="stroke:none;" d="M 0.546875 1.9375 L 0.546875 -7.75 L 6.046875 -7.75 L 6.046875 1.9375 Z M 1.171875 1.328125 L 5.4375 1.328125 L 5.4375 -7.140625 L 1.171875 -7.140625 Z M 1.171875 1.328125 "/>
</symbol>
<symbol overflow="visible" id="glyph0-1">
<path style="stroke:none;" d="M 5.890625 -7.75 L 5.890625 -6.703125 C 5.472656 -6.898438 5.082031 -7.046875 4.71875 -7.140625 C 4.351562 -7.234375 4 -7.28125 3.65625 -7.28125 C 3.070312 -7.28125 2.617188 -7.164062 2.296875 -6.9375 C 1.972656 -6.707031 1.8125 -6.382812 1.8125 -5.96875 C 1.8125 -5.613281 1.914062 -5.34375 2.125 -5.15625 C 2.34375 -4.976562 2.75 -4.832031 3.34375 -4.71875 L 4 -4.59375 C 4.8125 -4.4375 5.410156 -4.160156 5.796875 -3.765625 C 6.179688 -3.378906 6.375 -2.863281 6.375 -2.21875 C 6.375 -1.4375 6.113281 -0.84375 5.59375 -0.4375 C 5.070312 -0.0390625 4.304688 0.15625 3.296875 0.15625 C 2.921875 0.15625 2.515625 0.109375 2.078125 0.015625 C 1.648438 -0.0664062 1.207031 -0.191406 0.75 -0.359375 L 0.75 -1.46875 C 1.195312 -1.21875 1.628906 -1.03125 2.046875 -0.90625 C 2.472656 -0.78125 2.890625 -0.71875 3.296875 -0.71875 C 3.921875 -0.71875 4.398438 -0.835938 4.734375 -1.078125 C 5.066406 -1.328125 5.234375 -1.675781 5.234375 -2.125 C 5.234375 -2.519531 5.113281 -2.828125 4.875 -3.046875 C 4.632812 -3.273438 4.238281 -3.445312 3.6875 -3.5625 L 3.03125 -3.6875 C 2.21875 -3.84375 1.628906 -4.09375 1.265625 -4.4375 C 0.898438 -4.78125 0.71875 -5.257812 0.71875 -5.875 C 0.71875 -6.582031 0.96875 -7.140625 1.46875 -7.546875 C 1.96875 -7.960938 2.660156 -8.171875 3.546875 -8.171875 C 3.921875 -8.171875 4.300781 -8.132812 4.6875 -8.0625 C 5.082031 -7.988281 5.484375 -7.882812 5.890625 -7.75 Z M 5.890625 -7.75 "/>
</symbol>
<symbol overflow="visible" id="glyph0-2">
<path style="stroke:none;" d="M 1.078125 -8.015625 L 2.546875 -8.015625 L 6.09375 -1.3125 L 6.09375 -8.015625 L 7.15625 -8.015625 L 7.15625 0 L 5.6875 0 L 2.125 -6.703125 L 2.125 0 L 1.078125 0 Z M 1.078125 -8.015625 "/>
</symbol>
<symbol overflow="visible" id="glyph0-3">
<path style="stroke:none;" d="M 1.078125 -8.015625 L 2.171875 -8.015625 L 2.171875 -4.734375 L 6.109375 -4.734375 L 6.109375 -8.015625 L 7.1875 -8.015625 L 7.1875 0 L 6.109375 0 L 6.109375 -3.8125 L 2.171875 -3.8125 L 2.171875 0 L 1.078125 0 Z M 1.078125 -8.015625 "/>
</symbol>
<symbol overflow="visible" id="glyph0-4">
<path style="stroke:none;" d="M 1.078125 -8.015625 L 5.6875 -8.015625 L 5.6875 -7.109375 L 2.171875 -7.109375 L 2.171875 -4.75 L 5.34375 -4.75 L 5.34375 -3.828125 L 2.171875 -3.828125 L 2.171875 0 L 1.078125 0 Z M 1.078125 -8.015625 "/>
</symbol>
</g>
</defs>
<g id="surface18689">
<rect x="0" y="0" width="300" height="300" style="fill:rgb(100%,100%,100%);fill-opacity:1;stroke:none;"/>
<path style="fill:none;stroke-width:1.2;stroke-linecap:butt;stroke-linejoin:miter;stroke:rgb(80%,80%,0%);stroke-opacity:1;stroke-miterlimit:10;" d="M 131.210938 163.726562 L 138.839844 153.210938 "/>
<path style="fill:none;stroke-width:1.2;stroke-linecap:butt;stroke-linejoin:miter;stroke:rgb(0%,0%,0%);stroke-opacity:1;stroke-miterlimit:10;" d="M 138.839844 153.210938 L 146.46875 142.691406 "/>
<path style="fill:none;stroke-width:1.2;stroke-linecap:butt;stroke-linejoin:miter;stroke:rgb(0%,0%,0%);stroke-opacity:1;stroke-miterlimit:10;" d="M 106.488281 155.714844 L 118.847656 159.722656 "/>
<path style="fill:none;stroke-width:1.2;stroke-linecap:butt;stroke-linejoin:miter;stroke:rgb(80%,80%,0%);stroke-opacity:1;stroke-miterlimit:10;" d="M 118.847656 159.722656 L 131.210938 163.726562 "/>
<path style=" stroke:none;fill-rule:nonzero;fill:rgb(100%,100%,100%);fill-opacity:1;" d="M 128.210938 157.226562 L 135.210938 157.226562 L 135.210938 170.226562 L 128.210938 170.226562 Z M 128.210938 157.226562 "/>
<g style="fill:rgb(80%,80%,0%);fill-opacity:1;">
  <use xlink:href="#glyph0-1" x="128.210938" y="167.12793"/>
</g>
<path style="fill:none;stroke-width:1.2;stroke-linecap:butt;stroke-linejoin:miter;stroke:rgb(0%,0%,0%);stroke-opacity:1;stroke-miterlimit:10;" d="M 146.46875 142.691406 L 172.308594 139.957031 "/>
<path style="fill:none;stroke-width:1.2;stroke-linecap:butt;stroke-linejoin:miter;stroke:rgb(0%,0%,0%);stroke-opacity:1;stroke-miterlimit:10;" d="M 148.40625 136.339844 L 169.082031 134.152344 "/>
<path style="fill:none;stroke-width:1.2;stroke-linecap:butt;stroke-linejoin:miter;stroke:rgb(0%,0%,0%);stroke-opacity:1;stroke-miterlimit:10;" d="M 131.179688 121.683594 L 146.46875 142.691406 "/>
<path style="fill:none;stroke-width:1.2;stroke-linecap:butt;stroke-linejoin:miter;stroke:rgb(0%,0%,0%);stroke-opacity:1;stroke-miterlimit:10;" d="M 172.308594 139.957031 L 182.859375 116.210938 "/>
<path style="fill:none;stroke-width:1.2;stroke-linecap:butt;stroke-linejoin:miter;stroke:rgb(0%,0%,0%);stroke-opacity:1;stroke-miterlimit:10;" d="M 182.859375 116.210938 L 167.570312 95.199219 "/>
<path style="fill:none;stroke-width:1.2;stroke-linecap:butt;stroke-linejoin:miter;stroke:rgb(0%,0%,0%);stroke-opacity:1;stroke-miterlimit:10;" d="M 176.386719 117.707031 L 164.15625 100.898438 "/>
<path style="fill:none;stroke-width:1.2;stroke-linecap:butt;stroke-linejoin:miter;stroke:rgb(0%,0%,0%);stroke-opacity:1;stroke-miterlimit:10;" d="M 182.859375 116.210938 L 208.699219 113.476562 "/>
<path style="fill:none;stroke-width:1.2;stroke-linecap:butt;stroke-linejoin:miter;stroke:rgb(0%,0%,0%);stroke-opacity:1;stroke-miterlimit:10;" d="M 167.570312 95.199219 L 141.730469 97.933594 "/>
<path style="fill:none;stroke-width:1.2;stroke-linecap:butt;stroke-linejoin:miter;stroke:rgb(0%,0%,0%);stroke-opacity:1;stroke-miterlimit:10;" d="M 141.730469 97.933594 L 131.179688 121.683594 "/>
<path style="fill:none;stroke-width:1.2;stroke-linecap:butt;stroke-linejoin:miter;stroke:rgb(0%,0%,0%);stroke-opacity:1;stroke-miterlimit:10;" d="M 146.261719 102.792969 L 137.820312 121.789062 "/>
<path style="fill:none;stroke-width:1.2;stroke-linecap:butt;stroke-linejoin:miter;stroke:rgb(0%,0%,0%);stroke-opacity:1;stroke-miterlimit:10;" d="M 131.179688 121.683594 L 118.824219 125.707031 "/>
<path style="fill:none;stroke-width:1.2;stroke-linecap:butt;stroke-linejoin:miter;stroke:rgb(0%,0%,100%);stroke-opacity:1;stroke-miterlimit:10;" d="M 118.824219 125.707031 L 106.46875 129.730469 "/>
<path style="fill:none;stroke-width:1.2;stroke-linecap:butt;stroke-linejoin:miter;stroke:rgb(0%,0%,100%);stroke-opacity:1;stroke-miterlimit:10;" d="M 106.46875 129.730469 L 106.480469 142.722656 "/>
<path style="fill:none;stroke-width:1.2;stroke-linecap:butt;stroke-linejoin:miter;stroke:rgb(0%,0%,0%);stroke-opacity:1;stroke-miterlimit:10;" d="M 106.480469 142.722656 L 106.488281 155.714844 "/>
<path style="fill:none;stroke-width:1.2;stroke-linecap:butt;stroke-linejoin:miter;stroke:rgb(0%,0%,100%);stroke-opacity:1;stroke-miterlimit:10;" d="M 112.585938 132.324219 L 112.59375 142.71875 "/>
<path style="fill:none;stroke-width:1.2;stroke-linecap:butt;stroke-linejoin:miter;stroke:rgb(0%,0%,0%);stroke-opacity:1;stroke-miterlimit:10;" d="M 112.59375 142.71875 L 112.601562 153.113281 "/>
<path style=" stroke:none;fill-rule:nonzero;fill:rgb(100%,100%,100%);fill-opacity:1;" d="M 102.46875 123.230469 L 110.46875 123.230469 L 110.46875 136.230469 L 102.46875 136.230469 Z M 102.46875 123.230469 "/>
<g style="fill:rgb(0%,0%,100%);fill-opacity:1;">
  <use xlink:href="#glyph0-2" x="102.46875" y="133.131836"/>
</g>
<path style="fill:none;stroke-width:1.2;stroke-linecap:butt;stroke-linejoin:miter;stroke:rgb(0%,0%,0%);stroke-opacity:1;stroke-miterlimit:10;" d="M 106.488281 155.714844 L 95.984375 163.359375 "/>
<path style="fill:none;stroke-width:1.2;stroke-linecap:butt;stroke-linejoin:miter;stroke:rgb(0%,0%,100%);stroke-opacity:1;stroke-miterlimit:10;" d="M 95.984375 163.359375 L 85.476562 171.003906 "/>
<path style="fill:none;stroke-width:1;stroke-linecap:butt;stroke-linejoin:miter;stroke:rgb(0%,0%,0%);stroke-opacity:1;stroke-miterlimit:10;" d="M 61.730469 160.453125 L 61.730469 160.453125 M 64.21875 162.128906 L 64.644531 161.175781 M 66.707031 163.804688 L 67.554688 161.898438 M 69.195312 165.480469 L 70.464844 162.621094 M 71.683594 167.15625 L 73.378906 163.347656 M 74.171875 168.832031 L 76.289062 164.070312 M 76.660156 170.507812 L 79.199219 164.792969 M 79.148438 172.1875 L 82.113281 165.515625 M 81.636719 173.863281 L 85.023438 166.238281 M 83.617188 175.195312 L 87.339844 166.8125 "/>
<path style=" stroke:none;fill-rule:nonzero;fill:rgb(100%,100%,100%);fill-opacity:1;" d="M 77.476562 164.503906 L 94.476562 164.503906 L 94.476562 177.503906 L 77.476562 177.503906 Z M 77.476562 164.503906 "/>
<g style="fill:rgb(0%,0%,100%);fill-opacity:1;">
  <use xlink:href="#glyph0-2" x="77.476562" y="174.405273"/>
  <use xlink:href="#glyph0-3" x="85.459961" y="174.405273"/>
</g>
<path style="fill:none;stroke-width:1.2;stroke-linecap:butt;stroke-linejoin:miter;stroke:rgb(0%,0%,0%);stroke-opacity:1;stroke-miterlimit:10;" d="M 61.730469 160.453125 L 58.996094 134.613281 "/>
<path style="fill:none;stroke-width:1.2;stroke-linecap:butt;stroke-linejoin:miter;stroke:rgb(0%,0%,0%);stroke-opacity:1;stroke-miterlimit:10;" d="M 61.730469 160.453125 L 40.722656 175.742188 "/>
<path style="fill:none;stroke-width:1.2;stroke-linecap:butt;stroke-linejoin:miter;stroke:rgb(0%,0%,0%);stroke-opacity:1;stroke-miterlimit:10;" d="M 58.996094 134.613281 L 35.25 124.058594 "/>
<path style="fill:none;stroke-width:1.2;stroke-linecap:butt;stroke-linejoin:miter;stroke:rgb(0%,0%,0%);stroke-opacity:1;stroke-miterlimit:10;" d="M 208.699219 113.476562 L 215.1875 102.21875 "/>
<path style="fill:none;stroke-width:1.2;stroke-linecap:butt;stroke-linejoin:miter;stroke:rgb(0%,0%,100%);stroke-opacity:1;stroke-miterlimit:10;" d="M 215.1875 102.21875 L 221.675781 90.960938 "/>
<path style="fill:none;stroke-width:1.2;stroke-linecap:butt;stroke-linejoin:miter;stroke:rgb(0%,0%,0%);stroke-opacity:1;stroke-miterlimit:10;" d="M 226.101562 132.773438 L 208.699219 113.476562 "/>
<path style="fill:none;stroke-width:1.2;stroke-linecap:butt;stroke-linejoin:miter;stroke:rgb(0%,0%,0%);stroke-opacity:1;stroke-miterlimit:10;" d="M 228.902344 126.75 L 214.980469 111.3125 "/>
<path style="fill:none;stroke-width:1.2;stroke-linecap:butt;stroke-linejoin:miter;stroke:rgb(0%,0%,100%);stroke-opacity:1;stroke-miterlimit:10;" d="M 221.675781 90.960938 L 234.386719 93.652344 "/>
<path style="fill:none;stroke-width:1.2;stroke-linecap:butt;stroke-linejoin:miter;stroke:rgb(0%,0%,0%);stroke-opacity:1;stroke-miterlimit:10;" d="M 234.386719 93.652344 L 247.097656 96.347656 "/>
<path style=" stroke:none;fill-rule:nonzero;fill:rgb(100%,100%,100%);fill-opacity:1;" d="M 213.675781 84.460938 L 230.675781 84.460938 L 230.675781 97.460938 L 213.675781 97.460938 Z M 213.675781 84.460938 "/>
<g style="fill:rgb(0%,0%,100%);fill-opacity:1;">
  <use xlink:href="#glyph0-2" x="213.675781" y="94.362305"/>
  <use xlink:href="#glyph0-3" x="221.65918" y="94.362305"/>
</g>
<path style="fill:none;stroke-width:1.2;stroke-linecap:butt;stroke-linejoin:miter;stroke:rgb(0%,0%,0%);stroke-opacity:1;stroke-miterlimit:10;" d="M 247.097656 96.347656 L 248.464844 109.265625 "/>
<path style="fill:none;stroke-width:1.2;stroke-linecap:butt;stroke-linejoin:miter;stroke:rgb(0%,0%,100%);stroke-opacity:1;stroke-miterlimit:10;" d="M 248.464844 109.265625 L 249.832031 122.1875 "/>
<path style="fill:none;stroke-width:1.2;stroke-linecap:butt;stroke-linejoin:miter;stroke:rgb(0%,0%,0%);stroke-opacity:1;stroke-miterlimit:10;" d="M 241.292969 99.574219 L 242.386719 109.910156 "/>
<path style="fill:none;stroke-width:1.2;stroke-linecap:butt;stroke-linejoin:miter;stroke:rgb(0%,0%,100%);stroke-opacity:1;stroke-miterlimit:10;" d="M 242.386719 109.910156 L 243.480469 120.246094 "/>
<path style="fill:none;stroke-width:1.2;stroke-linecap:butt;stroke-linejoin:miter;stroke:rgb(0%,0%,100%);stroke-opacity:1;stroke-miterlimit:10;" d="M 249.832031 122.1875 L 237.96875 127.480469 "/>
<path style="fill:none;stroke-width:1.2;stroke-linecap:butt;stroke-linejoin:miter;stroke:rgb(0%,0%,0%);stroke-opacity:1;stroke-miterlimit:10;" d="M 237.96875 127.480469 L 226.101562 132.773438 "/>
<path style=" stroke:none;fill-rule:nonzero;fill:rgb(100%,100%,100%);fill-opacity:1;" d="M 245.832031 115.6875 L 253.832031 115.6875 L 253.832031 128.6875 L 245.832031 128.6875 Z M 245.832031 115.6875 "/>
<g style="fill:rgb(0%,0%,100%);fill-opacity:1;">
  <use xlink:href="#glyph0-2" x="245.832031" y="125.588867"/>
</g>
<path style="fill:none;stroke-width:1.2;stroke-linecap:butt;stroke-linejoin:miter;stroke:rgb(0%,0%,0%);stroke-opacity:1;stroke-miterlimit:10;" d="M 226.101562 132.773438 L 220.71875 158.195312 "/>
<path style="fill:none;stroke-width:1.2;stroke-linecap:butt;stroke-linejoin:miter;stroke:rgb(0%,0%,0%);stroke-opacity:1;stroke-miterlimit:10;" d="M 220.71875 158.195312 L 196.011719 166.242188 "/>
<path style="fill:none;stroke-width:1.2;stroke-linecap:butt;stroke-linejoin:miter;stroke:rgb(0%,0%,0%);stroke-opacity:1;stroke-miterlimit:10;" d="M 220.140625 164.8125 L 200.375 171.25 "/>
<path style="fill:none;stroke-width:1.2;stroke-linecap:butt;stroke-linejoin:miter;stroke:rgb(0%,0%,0%);stroke-opacity:1;stroke-miterlimit:10;" d="M 240.042969 175.566406 L 220.71875 158.195312 "/>
<path style="fill:none;stroke-width:1.2;stroke-linecap:butt;stroke-linejoin:miter;stroke:rgb(0%,0%,0%);stroke-opacity:1;stroke-miterlimit:10;" d="M 196.011719 166.242188 L 190.628906 191.664062 "/>
<path style="fill:none;stroke-width:1.2;stroke-linecap:butt;stroke-linejoin:miter;stroke:rgb(0%,0%,0%);stroke-opacity:1;stroke-miterlimit:10;" d="M 190.628906 191.664062 L 209.949219 209.039062 "/>
<path style="fill:none;stroke-width:1.2;stroke-linecap:butt;stroke-linejoin:miter;stroke:rgb(0%,0%,0%);stroke-opacity:1;stroke-miterlimit:10;" d="M 196.648438 188.855469 L 212.105469 202.753906 "/>
<path style="fill:none;stroke-width:1.2;stroke-linecap:butt;stroke-linejoin:miter;stroke:rgb(0%,0%,0%);stroke-opacity:1;stroke-miterlimit:10;" d="M 209.949219 209.039062 L 234.660156 200.988281 "/>
<path style="fill:none;stroke-width:1.2;stroke-linecap:butt;stroke-linejoin:miter;stroke:rgb(0%,0%,0%);stroke-opacity:1;stroke-miterlimit:10;" d="M 234.660156 200.988281 L 240.042969 175.566406 "/>
<path style="fill:none;stroke-width:1.2;stroke-linecap:butt;stroke-linejoin:miter;stroke:rgb(0%,0%,0%);stroke-opacity:1;stroke-miterlimit:10;" d="M 229.214844 197.179688 L 233.523438 176.84375 "/>
<path style="fill:none;stroke-width:1.2;stroke-linecap:butt;stroke-linejoin:miter;stroke:rgb(0%,0%,0%);stroke-opacity:1;stroke-miterlimit:10;" d="M 240.042969 175.566406 L 252.394531 171.542969 "/>
<path style="fill:none;stroke-width:1.2;stroke-linecap:butt;stroke-linejoin:miter;stroke:rgb(20%,80%,80%);stroke-opacity:1;stroke-miterlimit:10;" d="M 252.394531 171.542969 L 264.75 167.519531 "/>
<path style=" stroke:none;fill-rule:nonzero;fill:rgb(100%,100%,100%);fill-opacity:1;" d="M 261.75 161.019531 L 268.75 161.019531 L 268.75 174.019531 L 261.75 174.019531 Z M 261.75 161.019531 "/>
<g style="fill:rgb(20%,80%,80%);fill-opacity:1;">
  <use xlink:href="#glyph0-4" x="261.75" y="170.920898"/>
</g>
</g>
</svg>

<svg xmlns="http://www.w3.org/2000/svg" xmlns:xlink="http://www.w3.org/1999/xlink" width="300pt" height="300pt" viewBox="0 0 300 300"><defs><symbol overflow="visible"><path d="M.547 1.938V-7.75h5.5v9.688zm.625-.61h4.266v-8.47H1.171zm0 0"/></symbol><symbol overflow="visible" id="a"><path d="M5.89-7.75v1.047c-.417-.195-.808-.344-1.17-.438-.368-.094-.72-.14-1.064-.14-.586 0-1.04.116-1.36.343-.323.23-.483.554-.483.968 0 .357.1.626.312.814.22.18.625.324 1.22.437L4-4.593c.813.157 1.41.434 1.797.828.383.387.578.903.578 1.547 0 .783-.262 1.376-.78 1.783-.525.398-1.29.593-2.298.593-.375 0-.78-.047-1.22-.14C1.648-.066 1.208-.19.75-.36v-1.11c.445.25.88.44 1.297.564.426.125.844.187 1.25.187.625 0 1.1-.116 1.437-.358.332-.25.5-.598.5-1.047 0-.395-.12-.703-.36-.922-.24-.226-.636-.398-1.186-.515l-.657-.126c-.81-.156-1.4-.406-1.764-.75C.898-4.78.72-5.258.72-5.875c0-.707.25-1.266.75-1.672.5-.414 1.19-.625 2.077-.625.375 0 .754.04 1.14.11.395.074.797.18 1.204.312zm0 0"/></symbol><symbol overflow="visible" id="b"><path d="M1.078-8.016h1.47l3.546 6.704v-6.704h1.062V0H5.688L2.124-6.703V0H1.078zm0 0"/></symbol><symbol overflow="visible" id="c"><path d="M1.078-8.016h1.094v3.282H6.11v-3.282h1.077V0H6.11v-3.813H2.17V0H1.078zm0 0"/></symbol><symbol overflow="visible" id="d"><path d="M1.078-8.016h4.61v.907H2.171v2.36h3.172v.922H2.172V0H1.078zm0 0"/></symbol></defs><g><path fill="#fff" d="M0 0h300v300H0z"/><path d="M131.21 163.727l7.63-10.516" stroke-width="1.2" stroke="#cc0" stroke-miterlimit="10" fill="none"/><path d="M138.84 153.21l7.63-10.52M106.488 155.715l12.36 4.008" stroke-width="1.2" stroke="#000" stroke-miterlimit="10" fill="none"/><path d="M118.848 159.723l12.363 4.004" stroke-width="1.2" stroke="#cc0" stroke-miterlimit="10" fill="none"/><path d="M128.21 157.227h7v13h-7zm0 0" fill="#fff"/><use xlink:href="#a" x="128.211" y="167.128" fill="#cc0"/><path d="M146.47 142.69l25.84-2.733M148.406 136.34l20.676-2.188M131.18 121.684l15.29 21.007M172.31 139.957l10.55-23.746M182.86 116.21L167.57 95.2M176.387 117.707l-12.23-16.81M182.86 116.21l25.84-2.733M167.57 95.2l-25.84 2.734M141.73 97.934l-10.55 23.75M146.262 102.793l-8.442 18.996M131.18 121.684l-12.356 4.023" stroke-width="1.2" stroke="#000" stroke-miterlimit="10" fill="none"/><path d="M118.824 125.707l-12.355 4.023M106.47 129.73l.01 12.993" stroke-width="1.2" stroke="#00f" stroke-miterlimit="10" fill="none"/><path d="M106.48 142.723l.008 12.992" stroke-width="1.2" stroke="#000" stroke-miterlimit="10" fill="none"/><path d="M112.586 132.324l.008 10.395" stroke-width="1.2" stroke="#00f" stroke-miterlimit="10" fill="none"/><path d="M112.594 142.72l.008 10.393" stroke-width="1.2" stroke="#000" stroke-miterlimit="10" fill="none"/><path d="M102.47 123.23h8v13h-8zm0 0" fill="#fff"/><use xlink:href="#b" x="102.469" y="133.132" fill="#00f"/><path d="M106.488 155.715l-10.504 7.644" stroke-width="1.2" stroke="#000" stroke-miterlimit="10" fill="none"/><path d="M95.984 163.36l-10.507 7.644" stroke-width="1.2" stroke="#00f" stroke-miterlimit="10" fill="none"/><path d="M61.73 160.453m2.49 1.676l.425-.954m2.062 2.63l.848-1.908m1.64 3.582l1.27-2.86m1.22 4.536l1.694-3.808m.792 5.484l2.117-4.762m.37 6.438l2.54-5.715m-.052 7.394l2.965-6.67m-.476 8.346l3.386-7.625m-1.406 8.957l3.723-8.382" stroke="#000" stroke-miterlimit="10" fill="none"/><path d="M77.477 164.504h17v13h-17zm0 0" fill="#fff"/><g fill="#00f"><use xlink:href="#b" x="77.477" y="174.405"/><use xlink:href="#c" x="85.46" y="174.405"/></g><path d="M61.73 160.453l-2.734-25.84M61.73 160.453l-21.007 15.29M58.996 134.613L35.25 124.06M208.7 113.477l6.488-11.258" stroke-width="1.2" stroke="#000" stroke-miterlimit="10" fill="none"/><path d="M215.188 102.22l6.488-11.26" stroke-width="1.2" stroke="#00f" stroke-miterlimit="10" fill="none"/><path d="M226.102 132.773L208.7 113.477M228.902 126.75l-13.922-15.438" stroke-width="1.2" stroke="#000" stroke-miterlimit="10" fill="none"/><path d="M221.676 90.96l12.71 2.692" stroke-width="1.2" stroke="#00f" stroke-miterlimit="10" fill="none"/><path d="M234.387 93.652l12.71 2.696" stroke-width="1.2" stroke="#000" stroke-miterlimit="10" fill="none"/><path d="M213.676 84.46h17v13h-17zm0 0" fill="#fff"/><g fill="#00f"><use xlink:href="#b" x="213.676" y="94.362"/><use xlink:href="#c" x="221.659" y="94.362"/></g><path d="M247.098 96.348l1.367 12.918" stroke-width="1.2" stroke="#000" stroke-miterlimit="10" fill="none"/><path d="M248.465 109.266l1.367 12.92" stroke-width="1.2" stroke="#00f" stroke-miterlimit="10" fill="none"/><path d="M241.293 99.574l1.094 10.336" stroke-width="1.2" stroke="#000" stroke-miterlimit="10" fill="none"/><path d="M242.387 109.91l1.093 10.336M249.832 122.188l-11.863 5.292" stroke-width="1.2" stroke="#00f" stroke-miterlimit="10" fill="none"/><path d="M237.97 127.48l-11.868 5.293" stroke-width="1.2" stroke="#000" stroke-miterlimit="10" fill="none"/><path d="M245.832 115.688h8v13h-8zm0 0" fill="#fff"/><use xlink:href="#b" x="245.832" y="125.589" fill="#00f"/><path d="M226.102 132.773l-5.383 25.422M220.72 158.195l-24.708 8.047M220.14 164.813l-19.765 6.437M240.043 175.566l-19.324-17.37M196.012 166.242l-5.383 25.422M190.63 191.664l19.32 17.375M196.648 188.855l15.457 13.9M209.95 209.04l24.71-8.052M234.66 200.988l5.383-25.422M229.215 197.18l4.308-20.336M240.043 175.566l12.352-4.023" stroke-width="1.2" stroke="#000" stroke-miterlimit="10" fill="none"/><path d="M252.395 171.543l12.355-4.023" stroke-width="1.2" stroke="#3cc" stroke-miterlimit="10" fill="none"/><path d="M261.75 161.02h7v13h-7zm0 0" fill="#fff"/><use xlink:href="#d" x="261.75" y="170.921" fill="#3cc"/></g></svg>
